X: 38477
T: Steamboat, The
R: jig
M: 6/8
K: Dmajor
|:A|d2 A F2 A dcB A2 A|dcB AGF EFG ABc|
d2 A F2 A dcB A2 A|d>cB A>GF GFE D2:|
|:E|F2 A A2 A ABA FED|G2 B B2 ^A B2 =A Bcd|
F2 A- A2 A A>BA FED|d>cB A>GF GFE D2:|

